assets/ios/swift/Icons.xcassets/company.imageset/company.svg

<svg width="24" height="24" viewBox="0 0 24 24" fill="none" xmlns="http://www.w3.org/2000/svg">
<path d="M14 7H19C20.1046 7 21 7.89543 21 9V19C21 20.1046 20.1046 21 19 21H5C3.89543 21 3 20.1046 3 19V5C3 3.89543 3.89543 3 5 3H12C13.1046 3 14 3.89543 14 5V7ZM12 5H5V7H8C8.55228 7 9 7.44772 9 8C9 8.55228 8.55228 9 8 9H5V11H8C8.55228 11 9 11.4477 9 12C9 12.5523 8.55228 13 8 13H5V15H8C8.55228 15 9 15.4477 9 16C9 16.5523 8.55228 17 8 17H5V19H12V5ZM14 9V11H16C16.5523 11 17 11.4477 17 12C17 12.5523 16.5523 13 16 13H14V15H16C16.5523 15 17 15.4477 17 16C17 16.5523 16.5523 17 16 17H14V19H19V9H14Z" fill="black"/>
</svg>

<svg xmlns="http://www.w3.org/2000/svg" width="24" height="24" fill="black" viewBox="0 0 24 24">
  <path d="M14 7h5a2 2 0 0 1 2 2v10a2 2 0 0 1-2 2H5a2 2 0 0 1-2-2V5a2 2 0 0 1 2-2h7a2 2 0 0 1 2 2v2Zm-2-2H5v2h3a1 1 0 0 1 0 2H5v2h3a1 1 0 1 1 0 2H5v2h3a1 1 0 1 1 0 2H5v2h7V5Zm2 4v2h2a1 1 0 1 1 0 2h-2v2h2a1 1 0 1 1 0 2h-2v2h5V9h-5Z"/>
</svg>
